media/logo.svg

<svg xmlns="http://www.w3.org/2000/svg" class="ionicon" viewBox="0 0 512 512"><title>Logo Octocat</title><path fill="#FF2E63" d="M172.86 290.12c-9.75 0-18.11 4.56-24.86 13.87s-10.07 20.58-10.07 34 3.43 24.91 10.07 34.12S163 386 172.86 386c9.1 0 17-4.66 23.68-13.87s10.07-20.58 10.07-34.12-3.43-24.81-10.07-34-14.54-13.89-23.68-13.89zM340.32 290.12c-9.64 0-18.11 4.56-24.86 13.87s-10.07 20.58-10.07 34 3.43 24.91 10.07 34.12S330.57 386 340.32 386c9.11 0 17-4.66 23.79-13.87s10.07-20.58 10.07-34.12-3.43-24.81-10.07-34-14.57-13.89-23.79-13.89z"/><path fill="#FF2E63" d="M459.36 165c-.11 0 2.89-15.49.32-42.47-2.36-27-8-51.78-17.25-74.53 0 0-4.72.87-13.72 3.14S405 58 384.89 67.18c-19.82 9.2-40.71 21.44-62.46 36.29-14.79-4.23-36.86-6.39-66.43-6.39-28.18 0-50.25 2.16-66.43 6.39Q117.9 53.25 69.46 48q-13.81 34.13-17.14 74.75c-2.57 27 .43 42.58.43 42.58C26.71 193.82 16 234.88 16 268.78c0 26.22.75 49.94 6.54 71 6 20.91 13.6 38 22.6 51.14A147.49 147.49 0 0079 425.43c13.39 10.08 25.71 17.34 36.86 21.89 11.25 4.76 24 8.23 38.57 10.72a279.19 279.19 0 0032.68 4.34s30 1.62 69 1.62 68.89-1.62 68.89-1.62a285.25 285.25 0 0032.68-4.38 178.91 178.91 0 0038.46-10.72c11.15-4.66 23.47-11.81 37-21.89a145 145 0 0033.75-34.55c9-13.11 16.6-30.23 22.6-51.14s6.51-44.81 6.51-71.03c0-32.82-10.71-74.42-36.64-103.67zm-70.07 253.07C359.39 432.26 315.46 438 257.18 438h-2.25c-58.29 0-102.22-5.63-131.57-19.93s-44.25-43.45-44.25-87.43c0-26.32 9.21-47.66 27.32-64 7.93-7 17.57-11.92 29.57-14.84s22.93-3 33.21-2.71c10.08.43 24.22 2.38 42.11 3.79s31.39 3.25 44.79 3.25c12.53 0 29.14-2.17 55.82-4.33s46.61-3.25 59.46-1.09c13.18 2.17 24.65 6.72 34.4 15.93q28.44 25.67 28.5 64c-.11 43.98-15.22 73.24-45 87.43z"/></svg>

<svg width="512" height="512" viewBox="0 0 512 512" fill="none" xmlns="http://www.w3.org/2000/svg">
<path d="M172.86 290.12C163.11 290.12 154.75 294.68 148 303.99C141.25 313.3 137.93 324.57 137.93 337.99C137.93 351.41 141.36 362.9 148 372.11C154.64 381.32 163 386 172.86 386C181.96 386 189.86 381.34 196.54 372.13C203.22 362.92 206.61 351.55 206.61 338.01C206.61 324.47 203.18 313.2 196.54 304.01C189.9 294.82 182 290.12 172.86 290.12ZM340.32 290.12C330.68 290.12 322.21 294.68 315.46 303.99C308.71 313.3 305.39 324.57 305.39 337.99C305.39 351.41 308.82 362.9 315.46 372.11C322.1 381.32 330.57 386 340.32 386C349.43 386 357.32 381.34 364.11 372.13C370.9 362.92 374.18 351.55 374.18 338.01C374.18 324.47 370.75 313.2 364.11 304.01C357.47 294.82 349.54 290.12 340.32 290.12Z" fill="#DA0037"/>
<path d="M459.36 165C459.25 165 462.25 149.51 459.68 122.53C457.32 95.53 451.68 70.75 442.43 48C442.43 48 437.71 48.87 428.71 51.14C419.71 53.41 405 58 384.89 67.18C365.07 76.38 344.18 88.62 322.43 103.47C307.64 99.24 285.57 97.08 256 97.08C227.82 97.08 205.75 99.24 189.57 103.47C141.79 69.99 101.753 51.5 69.46 48C60.2533 70.7533 54.54 95.67 52.32 122.75C49.75 149.75 52.75 165.33 52.75 165.33C26.71 193.82 16 234.88 16 268.78C16 295 16.75 318.72 22.54 339.78C28.54 360.69 36.14 377.78 45.14 390.92C54.4516 404.208 65.8919 415.867 79 425.43C92.39 435.51 104.71 442.77 115.86 447.32C127.11 452.08 139.86 455.55 154.43 458.04C165.228 460.129 176.141 461.578 187.11 462.38C187.11 462.38 217.11 464 256.11 464C295.11 464 325 462.38 325 462.38C335.969 461.551 346.88 460.089 357.68 458C370.86 455.873 383.76 452.277 396.14 447.28C407.29 442.62 419.61 435.47 433.14 425.39C446.242 415.841 457.651 404.163 466.89 390.84C475.89 377.73 483.49 360.61 489.49 339.7C495.49 318.79 496 294.89 496 268.67C496 235.85 485.29 194.25 459.36 165V165ZM389.29 418.07C359.39 432.26 315.46 438 257.18 438H254.93C196.64 438 152.71 432.37 123.36 418.07C94.01 403.77 79.11 374.62 79.11 330.64C79.11 304.32 88.32 282.98 106.43 266.64C114.36 259.64 124 254.72 136 251.8C148 248.88 158.93 248.8 169.21 249.09C179.29 249.52 193.43 251.47 211.32 252.88C229.21 254.29 242.71 256.13 256.11 256.13C268.64 256.13 285.25 253.96 311.93 251.8C338.61 249.64 358.54 248.55 371.39 250.71C384.57 252.88 396.04 257.43 405.79 266.64C424.75 283.753 434.25 305.087 434.29 330.64C434.18 374.62 419.07 403.88 389.29 418.07V418.07Z" fill="#DA0037"/>
</svg>
